static/assets/images/networks/metis.svg

<svg xmlns="http://www.w3.org/2000/svg" fill="none" viewBox="0 0 512 512"><path fill="#2ADACC" d="M512 256a256 256 0 0 1-74.981 181.019 255.997 255.997 0 0 1-362.038 0A256 256 0 1 1 512 256"/><path fill="#fff" d="M313.882 442.231c.402.311.794.612 1.196.902.582.442 1.236 1.003 1.135 1.736-.1.732-.824 1.073-1.477 1.323-24.043 9.198-55.692 8.275-80.841 5.627a237 237 0 0 1-38.491-7.302c-9.264-2.567-27.761-5.666-34.281-13.108-4.733-5.406 6.49-13.54 9.303-17.241 5.818-7.643 10.209-17.131 14.318-25.777 8.62-18.143 18.175-41.011 20.175-61.08.362-2.197 1.065-2.698 3.275-2.548q.957.095 1.889.321c1.554.331 3.146.452 4.733.361 4.45-.511 8.811-1.574 13.222-2.156 8.6-1.003 40.45-10.501 34.964-23.981a2.6 2.6 0 0 0-.998-1.194 2.6 2.6 0 0 0-1.503-.411 6.4 6.4 0 0 1-2.733-.872 3.8 3.8 0 0 0-3.899-.121c-1.627.923-3.466.542-5.184.863a58 58 0 0 0-9.153 2.708c-3.376 1.203-6.621 2.678-9.957 3.931a13.6 13.6 0 0 0-3.577 1.806 4 4 0 0 1-1.256.692c-2.632.752-4.712 2.588-7.214 3.601a6.5 6.5 0 0 0-2.562 1.735 2.9 2.9 0 0 1-1.125.872c-.874.321-1.768.913-2.733.181-3.446-2.618 7.033-21.905 8.49-25.365 1.306-3.16 3.265-5.015 6.822-3.751a9.4 9.4 0 0 0 3.296.531c2.652-.05 5.315-.13 7.957 0 4.316.08 8.626-.351 12.841-1.284a34 34 0 0 1 4.28-.551 19.3 19.3 0 0 0 7.033-2.187q.556-.224 1.135-.371c2.01-.612 4.019-.892 5.687-2.397a5.2 5.2 0 0 1 1.939-.923c4.019-1.233 7.033-3.941 10.158-6.499a3.184 3.184 0 0 0 .894-3.711 3.013 3.013 0 0 0-2.903-2.487 75 75 0 0 0-9.827.501c-5.023.662-9.736 2.628-14.87 2.508a19.7 19.7 0 0 0-7.033 1.554c-2.542.913-5.144 1.124-7.706 1.705a19.1 19.1 0 0 0-6.33 2.117c-8.038 4.403-2.16-6.74-.784-9.338a148 148 0 0 1 10.439-16.88 7.3 7.3 0 0 1 2.542-2.497 7.6 7.6 0 0 1 3.557-.442 101.9 101.9 0 0 0 58.144-16.458c2.01-1.304 4.16-3.26 3.627-5.557-.613-2.668-4.149-3.189-6.882-3.009a140.2 140.2 0 0 0-45.746 10.17c-1.185-.802-.301-2.637.653-3.711l15.403-17.351a16 16 0 0 1 3.818-3.46c3.064-1.775 6.862-1.354 10.399-1.093a84.8 84.8 0 0 0 49.734-12.036c2.13-1.294 4.481-3.3 4.019-5.737-.623-3.129-4.943-3.45-8.108-3.009l-33.508 4.614a1.95 1.95 0 0 1-1.005 0c-1.366-.592 0-2.588 1.327-3.26a370 370 0 0 0 56.174-34.973c2.602-2.006 5.396-5.517 3.306-8.024-1.497-1.785-4.341-1.294-6.571-.582a131.15 131.15 0 0 0-44.43 24.473c-3.747 3.149-7.485 6.599-12.177 8.023a277 277 0 0 0 14.046-35.585c.663-2.066 1.156-4.674-.472-6.088-2.21-1.936-5.506.391-7.425 2.618-14.408 16.629-27.208 35.746-30.614 57.47-.432 2.728-.723 5.536-2.01 8.024a22.6 22.6 0 0 1-3.526 4.764l-10.429 11.765c-.814.912-2.13 1.895-3.105 1.173a139 139 0 0 0 3.577-44.682c-.171-2.096-.603-4.534-2.462-5.547-2.642-1.444-5.676 1.144-7.344 3.651-5.426 8.154-7.797 18.003-8.581 27.762s-.08 19.568.151 29.357c.171 7.191-.663 13.039-4.23 19.257-1.005 1.775-5.576 12.036-8.52 10.882a1.46 1.46 0 0 1-.944-1.524v-5.015a61 61 0 0 0-.724-8.345 73 73 0 0 1-1.115-10.481 36.2 36.2 0 0 0-2.572-13.359c-.372-1.003-.533-2.006-.884-3.009a6.46 6.46 0 0 0-6.029-4.403 4.5 4.5 0 0 0-3.928 1.926 10.18 10.18 0 0 0-2.361 6.629c.15 7.783.14 15.566.201 23.349q-.043.48.05.953c1.175 4.824 1.105 9.849 2.391 14.653.673 2.498.181 5.116.814 7.633a37.5 37.5 0 0 0 1.206 5.135c1.165 2.929 1.446 6.068 2.099 9.107 1.096 5.095-4.4 13.65-6.229 18.384-2.261 5.898-3.838 2.367-5.797-1.705-1.859-3.861-3.346-7.883-5.024-11.855-3.014-7.201-6.169-14.763-12.117-20.059a6.832 6.832 0 0 0-6.29-1.504 4.157 4.157 0 0 0-3.275 3.119 9.77 9.77 0 0 0-.332 5.626c.633 2.367 1.126 4.785 1.668 7.172q.03.116.091.22c2.009 2.769 2.461 6.219 4.119 9.127.513.903.935 1.866 1.357 2.809a47.3 47.3 0 0 0 5.395 9.578c1.155 1.514 2.18 3.169 3.175 4.784 1.407 2.277 3.305 4.112 4.853 6.239.914 1.263 2.441 1.765 3.546 2.828a5.22 5.22 0 0 1 1.437 6.098 10 10 0 0 1-.422 1.073 21.3 21.3 0 0 0-2.321 7.793 26.7 26.7 0 0 1-1.396 5.577 29.2 29.2 0 0 0-1.698 8.695 17.5 17.5 0 0 1-.683 4.263c-.623 2.277-1.226 2.788-3.607 2.527a23.7 23.7 0 0 1-6.682-1.855c-7.967-3.53-15.192-8.525-23.179-12.036-3.406-1.494-6.862-2.447-9.826-4.443-2.653-1.785-4.441-5.015-7.174-6.509a1.76 1.76 0 0 1-.824-1.153 1.6 1.6 0 0 0-.392-.863c-2.431-1.906-3.014-5.015-4.732-7.342a2.7 2.7 0 0 1-.493-.822c-.783-3.26-2.401-6.229-3.426-9.398a26 26 0 0 0-2.24-5.777c-1.286-2.096-1.698-4.634-3.105-6.74a7.2 7.2 0 0 0-4.24-3.27 25.5 25.5 0 0 1-7.184-3.721 5.92 5.92 0 0 1-2.079-3.44 9.9 9.9 0 0 0-1.749-3.811 5.16 5.16 0 0 1-1.004-2.437 17 17 0 0 0-.633-3.009c-1.859-4.082-1.929-8.545-2.814-12.838a1.9 1.9 0 0 0-.12-.462c-1.708-2.487-3.225-5.195-6.25-6.358a3.6 3.6 0 0 1-1.587-1.003 2.3 2.3 0 0 0-1.005-.642 17.36 17.36 0 0 1-7.445-4.493c-2.451-2.237-5.385-4.163-5.888-7.874a.5.5 0 0 0-.07-.23c-3.014-3.681-2.28-8.325-3.265-12.527-.242-1.003-.272-2.067-.503-3.08-.422-1.815-1.004-3.52-2.863-4.493a3.71 3.71 0 0 1-1.99-3.741c.131-2.688.232-5.326 2.432-7.302.06 0 .13-.11.14-.18.563-3.32 3.015-5.787 3.95-8.937.492-1.634.582-3.119-.915-4.352a2.01 2.01 0 0 1-.772-1.332 2 2 0 0 1 .4-1.487c1.346-2.006 1.075-4.072.543-6.238a23.7 23.7 0 0 1-.08-9.759c.34-1.157.575-2.342.703-3.541.028-.319.102-.634.22-.932a71 71 0 0 1 5.155-9.027c1.527-1.936 3.496-3.54 4.491-5.887.21-.422.543-.772.954-1.003 2.01-1.204 3.427-3.14 5.295-4.534a19 19 0 0 1 2.492-1.855c1.628-.853 1.819-1.816.824-3.28-1.175-1.745-.884-2.788 1.065-3.611a15.9 15.9 0 0 1 3.617-1.283 3.831 3.831 0 0 0 3.326-3.34c.663-3.15 2.914-5.286 4.672-7.723 2.461-3.4 6.028-2.006 8.982-4.012 3.195-2.086 4.089-5.968 8.349-7.723 3.648-1.494 7.596-2.166 11.193-3.761 6.551-2.919 11.334-8.585 16.357-13.761 21.1-22.195 52.307-43.207 84.076-43.609 9.143-.12 18.216 1.264 27.249 2.628 19.712 3.009 40.189 8.024 60.012 9.157 3.075.331 5.818 1.635 8.701 2.568 15.654 4.965 24.496 14.553 31.529 29.316 5.395 11.334 10.991 22.567 16.98 33.6 3.365 6.198 8.691 12.417 9.303 19.708.332 3.952-1.336 6.219-2.461 9.759-1.336 4.162-1.407 8.836-1.477 13.159a9.52 9.52 0 0 0 2.441 6.539c3.256 3.621 5.958 7.713 9.515 11.093 1.316 1.244 2.08 3.009 3.266 4.413 5.767 6.891 15.513 12.096 22.646 17.522a4.86 4.86 0 0 1 2.16 2.708 4.14 4.14 0 0 1-.602 2.548c-3.366 6.368-11.052 8.856-16.749 13.309a3.23 3.23 0 0 0-1.437 3.831c.804 4.694 4.782 8.445 4.28 13.179a3.3 3.3 0 0 1-1.065 2.086c-1.256 1.244-2.512 2.478-3.738 3.751a4.73 4.73 0 0 0-1.473 3.322 4.73 4.73 0 0 0 1.313 3.388c.05.05.1.111.16.161.935 1.003 1.93 1.936 2.864 2.928 1.899 2.006 1.929 3.38.08 5.447-1.698 1.905-3.516 3.721-5.094 5.757a8.17 8.17 0 0 0-1.517 6.719c.543 3.691 1.949 7.212 1.738 11.103-.241 4.915-1.597 11.374-5.465 14.744-2.753 2.407-6.612 3.009-10.239 3.42a568 568 0 0 1-24.545 2.457c-11.183.873-27.269-2.678-33.518 8.706-2.01 3.611-3.014 7.673-4.019 11.655a344 344 0 0 1-17.854 50.92c-5.024 11.314-16.618 26.258-14.187 39.166 1.015 5.486 5.305 9.629 9.766 13.089"/></svg>

<svg width="512" height="512" viewBox="0 0 512 512" fill="none" xmlns="http://www.w3.org/2000/svg">
<path d="M512 256C512 323.895 485.029 389.01 437.019 437.019C389.01 485.029 323.895 512 256 512C188.105 512 122.99 485.029 74.9807 437.019C26.9714 389.01 0 323.895 0 256C0 188.105 26.9714 122.99 74.9807 74.9807C122.99 26.9714 188.105 0 256 0C323.895 0 389.01 26.9714 437.019 74.9807C485.029 122.99 512 188.105 512 256Z" fill="#2ADACC"/>
<path d="M313.882 442.231C314.284 442.542 314.676 442.843 315.078 443.133C315.66 443.575 316.314 444.136 316.213 444.869C316.113 445.601 315.389 445.942 314.736 446.192C290.693 455.39 259.044 454.467 233.895 451.819C220.885 450.453 208.01 448.01 195.404 444.517C186.14 441.95 167.643 438.851 161.123 431.409C156.39 426.003 167.613 417.869 170.426 414.168C176.244 406.525 180.635 397.037 184.744 388.391C193.364 370.248 202.919 347.38 204.919 327.311C205.281 325.114 205.984 324.613 208.194 324.763C208.831 324.826 209.462 324.934 210.083 325.084C211.637 325.415 213.229 325.536 214.816 325.445C219.266 324.934 223.627 323.871 228.038 323.289C236.638 322.286 268.488 312.788 263.002 299.308C262.8 298.817 262.451 298.401 262.004 298.114C261.557 297.827 261.032 297.684 260.501 297.703C259.535 297.622 258.601 297.323 257.768 296.831C257.19 296.461 256.522 296.254 255.835 296.233C255.149 296.212 254.469 296.377 253.869 296.71C252.242 297.633 250.403 297.252 248.685 297.573C245.565 298.223 242.503 299.129 239.532 300.281C236.156 301.484 232.911 302.959 229.575 304.212C228.3 304.635 227.095 305.243 225.998 306.018C225.625 306.322 225.199 306.556 224.742 306.71C222.11 307.462 220.03 309.298 217.528 310.311C216.547 310.674 215.668 311.27 214.966 312.046C214.67 312.425 214.283 312.725 213.841 312.918C212.967 313.239 212.073 313.831 211.108 313.099C207.662 310.481 218.141 291.194 219.598 287.734C220.904 284.574 222.863 282.719 226.42 283.983C227.478 284.355 228.594 284.535 229.716 284.514C232.368 284.464 235.031 284.384 237.673 284.514C241.989 284.594 246.299 284.163 250.514 283.23C251.927 282.957 253.357 282.772 254.794 282.679C257.257 282.408 259.645 281.666 261.827 280.492C262.197 280.343 262.576 280.219 262.962 280.121C264.972 279.509 266.981 279.229 268.649 277.724C269.224 277.284 269.884 276.97 270.588 276.801C274.607 275.568 277.621 272.86 280.746 270.302C281.276 269.863 281.649 269.264 281.811 268.595C281.972 267.926 281.912 267.223 281.64 266.591C281.519 265.905 281.164 265.282 280.634 264.829C280.105 264.375 279.434 264.119 278.737 264.104C275.454 264.055 272.171 264.222 268.91 264.605C263.887 265.267 259.174 267.233 254.04 267.113C251.62 267.195 249.236 267.722 247.007 268.667C244.465 269.58 241.863 269.791 239.301 270.372C237.083 270.701 234.94 271.418 232.971 272.489C224.933 276.892 230.811 265.749 232.187 263.151C235.284 257.297 238.772 251.658 242.626 246.271C243.254 245.241 244.127 244.383 245.168 243.774C246.302 243.345 247.521 243.193 248.725 243.332C269.329 243.849 289.604 238.109 306.869 226.874C308.879 225.57 311.029 223.614 310.496 221.317C309.883 218.649 306.347 218.128 303.614 218.308C287.901 219.107 272.435 222.545 257.868 228.478C256.683 227.676 257.567 225.841 258.521 224.767L273.924 207.416C275.002 206.065 276.291 204.897 277.742 203.956C280.806 202.181 284.604 202.602 288.141 202.863C305.566 204.066 322.937 199.863 337.875 190.827C340.005 189.533 342.356 187.527 341.894 185.09C341.271 181.961 336.951 181.64 333.786 182.081L300.278 186.695C299.949 186.783 299.602 186.783 299.273 186.695C297.907 186.103 299.273 184.107 300.6 183.435C320.334 173.477 339.134 161.773 356.774 148.462C359.376 146.456 362.17 142.945 360.08 140.438C358.583 138.653 355.739 139.144 353.509 139.856C337.243 145.047 322.151 153.36 309.079 164.329C305.332 167.478 301.594 170.928 296.902 172.352C302.399 160.828 307.092 148.938 310.948 136.767C311.611 134.701 312.104 132.093 310.476 130.679C308.266 128.743 304.97 131.07 303.051 133.297C288.643 149.926 275.843 169.043 272.437 190.767C272.005 193.495 271.714 196.303 270.427 198.791C269.466 200.526 268.281 202.128 266.901 203.555L256.472 215.32C255.658 216.232 254.342 217.215 253.367 216.493C256.968 201.889 258.176 186.8 256.944 171.811C256.773 169.715 256.341 167.277 254.482 166.264C251.84 164.82 248.806 167.408 247.138 169.915C241.712 178.069 239.341 187.918 238.557 197.677C237.774 207.436 238.477 217.245 238.708 227.034C238.879 234.225 238.045 240.073 234.478 246.291C233.473 248.066 228.902 258.327 225.958 257.173C225.654 257.06 225.396 256.848 225.225 256.572C225.054 256.296 224.98 255.971 225.014 255.649V250.634C224.964 247.839 224.722 245.051 224.29 242.289C223.667 238.827 223.295 235.324 223.175 231.808C223.169 227.233 222.296 222.7 220.603 218.449C220.231 217.446 220.07 216.443 219.719 215.44C219.294 214.173 218.486 213.069 217.406 212.281C216.327 211.492 215.028 211.057 213.69 211.037C212.925 210.998 212.163 211.154 211.476 211.491C210.788 211.828 210.198 212.334 209.762 212.963C208.212 214.823 207.375 217.173 207.401 219.592C207.551 227.375 207.541 235.158 207.602 242.941C207.573 243.26 207.59 243.58 207.652 243.894C208.827 248.718 208.757 253.743 210.043 258.547C210.716 261.045 210.224 263.663 210.857 266.18C211.138 267.918 211.541 269.634 212.063 271.315C213.228 274.244 213.509 277.383 214.162 280.422C215.258 285.517 209.762 294.072 207.933 298.806C205.672 304.704 204.095 301.173 202.136 297.101C200.277 293.24 198.79 289.218 197.112 285.246C194.098 278.045 190.943 270.483 184.995 265.187C184.153 264.437 183.137 263.907 182.04 263.645C180.942 263.382 179.797 263.395 178.705 263.683C177.916 263.831 177.187 264.205 176.605 264.758C176.024 265.312 175.616 266.022 175.43 266.802C174.769 268.604 174.654 270.561 175.098 272.428C175.731 274.795 176.224 277.213 176.766 279.6C176.786 279.677 176.816 279.751 176.857 279.82C178.866 282.589 179.318 286.039 180.976 288.947C181.489 289.85 181.911 290.813 182.333 291.756C183.752 295.147 185.563 298.361 187.728 301.334C188.883 302.848 189.908 304.503 190.903 306.118C192.31 308.395 194.208 310.23 195.756 312.357C196.67 313.62 198.197 314.122 199.302 315.185C200.17 315.91 200.779 316.896 201.038 317.995C201.297 319.095 201.192 320.248 200.739 321.283C200.619 321.649 200.479 322.007 200.317 322.356C199.049 324.781 198.261 327.427 197.996 330.149C197.733 332.053 197.265 333.922 196.6 335.726C195.595 338.521 195.023 341.454 194.902 344.421C194.851 345.865 194.621 347.297 194.219 348.684C193.596 350.961 192.993 351.472 190.612 351.211C188.305 350.924 186.054 350.298 183.93 349.356C175.963 345.826 168.739 340.831 160.751 337.32C157.345 335.826 153.889 334.873 150.925 332.877C148.272 331.092 146.484 327.862 143.751 326.368C143.541 326.243 143.36 326.076 143.218 325.877C143.076 325.679 142.977 325.453 142.927 325.215C142.885 324.895 142.749 324.594 142.535 324.352C140.104 322.446 139.521 319.337 137.803 317.01C137.59 316.768 137.423 316.49 137.31 316.188C136.527 312.928 134.909 309.959 133.884 306.79C133.372 304.782 132.619 302.842 131.644 301.013C130.358 298.917 129.946 296.379 128.539 294.273C127.599 292.68 126.081 291.51 124.299 291.003C121.721 290.153 119.296 288.897 117.115 287.282C116.042 286.412 115.306 285.196 115.036 283.842C114.731 282.462 114.135 281.163 113.287 280.031C112.747 279.319 112.401 278.479 112.283 277.594C112.163 276.574 111.951 275.567 111.65 274.585C109.791 270.503 109.721 266.04 108.836 261.747C108.816 261.588 108.776 261.433 108.716 261.285C107.008 258.798 105.491 256.09 102.466 254.927C101.857 254.74 101.309 254.393 100.879 253.924C100.607 253.625 100.26 253.403 99.8742 253.282C97.0503 252.44 94.488 250.893 92.4291 248.789C89.9776 246.552 87.0437 244.626 86.5414 240.915C86.5379 240.834 86.5137 240.754 86.471 240.685C83.4568 237.004 84.1903 232.36 83.2057 228.158C82.9645 227.155 82.9344 226.091 82.7033 225.078C82.2813 223.263 81.6986 221.558 79.8398 220.585C79.1655 220.239 78.6136 219.694 78.258 219.026C77.9024 218.357 77.7602 217.596 77.8504 216.844C77.981 214.156 78.0815 211.518 80.2819 209.542C80.3422 209.542 80.4125 209.432 80.4226 209.362C80.9852 206.042 83.4367 203.575 84.3711 200.425C84.8635 198.791 84.9539 197.306 83.4568 196.073C83.2466 195.912 83.0701 195.712 82.9376 195.483C82.8051 195.255 82.7191 195.002 82.6845 194.741C82.65 194.479 82.6676 194.213 82.7363 193.958C82.8051 193.702 82.9236 193.463 83.0851 193.254C84.4314 191.248 84.1602 189.182 83.6276 187.016C82.923 183.804 82.8956 180.48 83.5473 177.257C83.8878 176.1 84.1232 174.915 84.2506 173.716C84.2788 173.397 84.3533 173.082 84.4716 172.784C85.9665 169.653 87.6892 166.636 89.6259 163.757C91.1531 161.821 93.1224 160.217 94.1171 157.87C94.3276 157.448 94.66 157.098 95.0715 156.867C97.081 155.663 98.4977 153.727 100.366 152.333C101.145 151.647 101.978 151.027 102.858 150.478C104.486 149.625 104.677 148.662 103.682 147.198C102.507 145.453 102.798 144.41 104.747 143.587C105.896 143.015 107.111 142.583 108.364 142.304C109.212 142.196 109.999 141.809 110.602 141.204C111.204 140.599 111.587 139.811 111.69 138.964C112.353 135.814 114.604 133.678 116.362 131.241C118.823 127.841 122.39 129.235 125.344 127.229C128.539 125.143 129.433 121.261 133.693 119.506C137.341 118.012 141.289 117.34 144.886 115.745C151.437 112.826 156.22 107.16 161.243 101.984C182.343 79.7887 213.55 58.7765 245.319 58.3753C254.462 58.255 263.535 59.6391 272.568 61.0031C292.28 64.012 312.757 69.0268 332.58 70.1602C335.655 70.4912 338.398 71.795 341.281 72.7278C356.935 77.6925 365.777 87.2808 372.81 102.044C378.205 113.378 383.801 124.611 389.79 135.644C393.155 141.842 398.481 148.061 399.093 155.352C399.425 159.304 397.757 161.571 396.632 165.111C395.296 169.273 395.225 173.947 395.155 178.27C395.111 180.68 395.983 183.016 397.596 184.809C400.852 188.43 403.554 192.522 407.111 195.902C408.427 197.146 409.191 198.911 410.377 200.315C416.144 207.206 425.89 212.411 433.023 217.837C434.052 218.445 434.82 219.408 435.183 220.545C435.264 221.437 435.052 222.331 434.581 223.093C431.215 229.461 423.529 231.949 417.832 236.402C417.186 236.777 416.69 237.363 416.428 238.062C416.166 238.76 416.154 239.527 416.395 240.233C417.199 244.927 421.177 248.678 420.675 253.412C420.588 254.214 420.209 254.957 419.61 255.498C418.354 256.742 417.098 257.976 415.872 259.249C415.42 259.679 415.057 260.194 414.805 260.764C414.552 261.334 414.414 261.948 414.399 262.571C414.384 263.194 414.492 263.814 414.718 264.396C414.943 264.977 415.281 265.508 415.712 265.959C415.762 266.009 415.812 266.07 415.872 266.12C416.807 267.123 417.802 268.056 418.736 269.048C420.635 271.054 420.665 272.428 418.816 274.495C417.118 276.4 415.3 278.216 413.722 280.252C412.995 281.194 412.483 282.284 412.221 283.444C411.959 284.605 411.954 285.809 412.205 286.971C412.748 290.662 414.154 294.183 413.943 298.074C413.702 302.989 412.346 309.448 408.478 312.818C405.725 315.225 401.866 315.827 398.239 316.238C390.081 317.234 381.899 318.053 373.694 318.695C362.511 319.568 346.425 316.017 340.176 327.401C338.166 331.012 337.162 335.074 336.157 339.056C331.548 356.469 325.578 373.495 318.303 389.976C313.279 401.29 301.685 416.234 304.116 429.142C305.131 434.628 309.421 438.77 313.882 442.231Z" fill="white"/>
</svg>
